public/svgs/solid/ballot.svg

<svg xmlns="http://www.w3.org/2000/svg" viewBox="0 0 448 512"><!-- Font Awesome Pro 6.0.0-alpha2 by @fontawesome - https://fontawesome.com License - https://fontawesome.com/license (Commercial License) --><path d="M384 0H64C28.654 0 0 28.654 0 64V448C0 483.346 28.654 512 64 512H384C419.346 512 448 483.346 448 448V64C448 28.654 419.346 0 384 0ZM128 400C128 408.75 120.75 416 112 416H80C71.25 416 64 408.75 64 400V368C64 359.25 71.25 352 80 352H112C120.75 352 128 359.25 128 368V400ZM128 272C128 280.75 120.75 288 112 288H80C71.25 288 64 280.75 64 272V240C64 231.25 71.25 224 80 224H112C120.75 224 128 231.25 128 240V272ZM128 144C128 152.75 120.75 160 112 160H80C71.25 160 64 152.75 64 144V112C64 103.25 71.25 96 80 96H112C120.75 96 128 103.25 128 112V144ZM368 400H208C199.164 400 192 392.836 192 384S199.164 368 208 368H368C376.838 368 384 375.164 384 384S376.838 400 368 400ZM368 272H208C199.164 272 192 264.836 192 256S199.164 240 208 240H368C376.838 240 384 247.164 384 256S376.838 272 368 272ZM368 144H208C199.164 144 192 136.836 192 128S199.164 112 208 112H368C376.838 112 384 119.164 384 128S376.838 144 368 144Z"/></svg>

<svg xmlns="http://www.w3.org/2000/svg" viewBox="0 0 448 512"><!--! Font Awesome Pro 6.5.1 by @fontawesome - https://fontawesome.com License - https://fontawesome.com/license (Commercial License) Copyright 2023 Fonticons, Inc. --><path d="M64 0C28.7 0 0 28.7 0 64V448c0 35.3 28.7 64 64 64H384c35.3 0 64-28.7 64-64V64c0-35.3-28.7-64-64-64H64zm0 112c0-8.8 7.2-16 16-16h32c8.8 0 16 7.2 16 16v32c0 8.8-7.2 16-16 16H80c-8.8 0-16-7.2-16-16V112zm0 128c0-8.8 7.2-16 16-16h32c8.8 0 16 7.2 16 16v32c0 8.8-7.2 16-16 16H80c-8.8 0-16-7.2-16-16V240zM80 352h32c8.8 0 16 7.2 16 16v32c0 8.8-7.2 16-16 16H80c-8.8 0-16-7.2-16-16V368c0-8.8 7.2-16 16-16zm112 32c0-8.8 7.2-16 16-16H368c8.8 0 16 7.2 16 16s-7.2 16-16 16H208c-8.8 0-16-7.2-16-16zm16-272H368c8.8 0 16 7.2 16 16s-7.2 16-16 16H208c-8.8 0-16-7.2-16-16s7.2-16 16-16zM192 256c0-8.8 7.2-16 16-16H368c8.8 0 16 7.2 16 16s-7.2 16-16 16H208c-8.8 0-16-7.2-16-16z"/></svg>
